X:20402
T:Merry Backsmith, The
R:Reel
B:Tuneworks Tunebook 2 (https://www.tuneworks.co.uk/)
G:Tuneworks
Z:Jon Warbrick <jon.warbrick@googlemail.com>
M:4/4
L:1/8
K:D
AB | "D" d2 dA BAFA | ABdA BAFA | "D" ABde f2 ed | "G" Beed"A" egfe |
"D" d2 dA BAFA | ABdA BAFA | "D" ABde f2 ec | "A" dBAF"D" D2 :|
|: "D" a2 ag f2 fe | d2 dA BAFA | "D" ABde f2 ed | "G" Beed"A" egfe |
"D" a2 ag fgfe | d2 dA BAFA | "G" ABde f2 ec | "A" dBAF"D" D2 :|